src/shared/_assets/icons/plus-circle.svg

<svg width="17" height="17" viewBox="0 0 17 17" fill="none" xmlns="http://www.w3.org/2000/svg">
<path d="M7.5 12.5H9.16667V9.16667H12.5V7.5H9.16667V4.16667H7.5V7.5H4.16667V9.16667H7.5V12.5ZM8.33333 16.6667C7.18056 16.6667 6.09722 16.4479 5.08333 16.0104C4.06944 15.5729 3.1875 14.9792 2.4375 14.2292C1.6875 13.4792 1.09375 12.5972 0.65625 11.5833C0.21875 10.5694 0 9.48611 0 8.33333C0 7.18056 0.21875 6.09722 0.65625 5.08333C1.09375 4.06944 1.6875 3.1875 2.4375 2.4375C3.1875 1.6875 4.06944 1.09375 5.08333 0.65625C6.09722 0.21875 7.18056 0 8.33333 0C9.48611 0 10.5694 0.21875 11.5833 0.65625C12.5972 1.09375 13.4792 1.6875 14.2292 2.4375C14.9792 3.1875 15.5729 4.06944 16.0104 5.08333C16.4479 6.09722 16.6667 7.18056 16.6667 8.33333C16.6667 9.48611 16.4479 10.5694 16.0104 11.5833C15.5729 12.5972 14.9792 13.4792 14.2292 14.2292C13.4792 14.9792 12.5972 15.5729 11.5833 16.0104C10.5694 16.4479 9.48611 16.6667 8.33333 16.6667ZM8.33333 15C10.1944 15 11.7708 14.3542 13.0625 13.0625C14.3542 11.7708 15 10.1944 15 8.33333C15 6.47222 14.3542 4.89583 13.0625 3.60417C11.7708 2.3125 10.1944 1.66667 8.33333 1.66667C6.47222 1.66667 4.89583 2.3125 3.60417 3.60417C2.3125 4.89583 1.66667 6.47222 1.66667 8.33333C1.66667 10.1944 2.3125 11.7708 3.60417 13.0625C4.89583 14.3542 6.47222 15 8.33333 15Z" fill="#A1A1A1"/>
</svg>

<svg xmlns="http://www.w3.org/2000/svg" fill="none" viewBox="0 0 17 17"><path fill="currentColor" d="M7.5 12.5h1.667V9.167H12.5V7.5H9.167V4.167H7.5V7.5H4.167v1.667H7.5zm.833 4.167a8.1 8.1 0 0 1-3.25-.657 8.4 8.4 0 0 1-2.645-1.78 8.4 8.4 0 0 1-1.782-2.647A8.1 8.1 0 0 1 0 8.333q0-1.729.656-3.25a8.4 8.4 0 0 1 1.781-2.645A8.4 8.4 0 0 1 5.084.656 8.1 8.1 0 0 1 8.333 0q1.73 0 3.25.656a8.4 8.4 0 0 1 2.646 1.781 8.4 8.4 0 0 1 1.781 2.646 8.1 8.1 0 0 1 .657 3.25 8.1 8.1 0 0 1-.657 3.25 8.4 8.4 0 0 1-1.78 2.646 8.4 8.4 0 0 1-2.647 1.781 8.1 8.1 0 0 1-3.25.657m0-1.667q2.792 0 4.73-1.937Q15 11.125 15 8.333q0-2.79-1.937-4.729-1.938-1.937-4.73-1.937-2.79 0-4.729 1.937-1.937 1.938-1.937 4.73 0 2.79 1.937 4.729Q5.542 15 8.334 15"/></svg>
